X:1
T:Symphony No. 7 in A Major
T:Second Movement
T:Ludwig van Beethoven
T:Arranged for piano by Ernst Pauer
%%score { ( 1 3 6 ) | ( 2 4 5 ) }
L:1/8
Q:1/4=72
M:2/4
K:C
V:1 treble nm="Piano"
V:3 treble 
V:6 treble 
V:2 bass 
V:4 bass 
V:5 bass 
V:1
!f!"^Allegretto" [EAce]4- | [EAce]4 |[K:bass] [C,E,]2 .[C,E,].[C,E,] | [B,,E,]2 [B,,E,]2 | %4
 [B,,E,]2 .[B,,E,].[B,,E,] | [C,E,]2 [C,E,]2 | [C,E,]2 .[C,E,].[C,D,^F,] | [C,E,G,]2 [C,E,G,]2 | %8
 [B,,D,G,]2 .[A,,C,G,].[B,,D,G,] | [C,E,G,]2 z2 | [E,G,]2 .[E,G,].[E,A,] | [^D,B,]2 [D,B,]2 | %12
 [=D,^F,]2 .[D,F,].[D,^G,] | [^C,A,]2 [=C,A,]2 | [C,E,]2 .[C,E,].[C,E,] | [B,,E,]2 [C,E,]2 | %16
 [B,,E,]2 .[B,,E,^F,].[B,,E,^G,] | [C,E,A,]2 z2 |!pp! [E,=G,]2 .[E,G,].[E,A,] | [^D,B,]2 [D,B,]2 | %20
 [=D,^F,]2 .[D,F,].[D,^G,] | [^C,A,]2 [=C,A,]2 | [C,E,]2 .[C,E,].[C,E,] | [B,,E,]2 [C,E,]2 | %24
 [B,,E,]2 .[B,,E,^F,].[B,,E,^G,] | [C,E,A,]2 z2 |[K:treble]!p! E2 EE | E2 E2 | E2 EE | E2 E2 | %30
 E2 E^F | G2 G2 | G2 GG | G2 z2 | G2 GA | B2 B2 | ^F2 F^G | A2 A2 | E2 EE | E2 E2 | E2 ^F^G | %41
 A2 z2 |!pp! =G2 GA | B2 B2 | ^F2 F^G | A2 A2 | E2 EE | E2 E2 | E2 ^F^G | A2[Q:1/4=60]"_ten." z2 | %50
!p![Q:1/4=72] e2 .e.e | .e2 .e2 | e2 ee | e2 e2 | e2 e^f | g2 g2 | g2 gg | g2!mp! z2 | g2 ga | %59
 b2 b2 | ^f2 f^g | a2 a2 |!mf! e2 ee | e2 e2 | e2 ^f^g | a2 z2 |!f! =g2 ga | b2 b2 | ^f2 f^g | %69
 a2 a2 | e2 ee | e2 e2 | e2 ^f^g | a2 a2 |!ff! c'4 | b4 | b/4c'/4d'3/2- d'c'/b/ | bc' c'2 | %78
 c'3 c'/d'/ | ^d'e'e'e' | =d'/4e'/4f'3/2- f'e'/d'/ | d'e' e'2 | e'2 e'2 | ^d'4 | %84
 =d'b/^c'/ d'e'/d'/ | d'^c' =c'2 | c'4 | b2 c'2 | b/4c'/4d'3/2- d'c'/b/ | a!mf!A/B/ cc/d/ | %90
!ff! e'2 e'2 | ^d'4 | =d'b/^c'/ d'e'/d'/ | d'^c' =c'2 | c'4 | b2 c'2 | b/4c'/4d'3/2- d'c'/b/ | %97
!p! a2 z2 | e2[Q:1/4=60][Q:1/4=72] ^f^g | a2 z2 | z2 [Ee]2 ||[K:A]!p! e2 c2 | A2 c2 | c2 B2- | %104
 B2 A2 | G2 A2 | B2 c2 | d2 e2 | d2 (3cxa | a2 =g2- | g4- | g2 f2 | f2 e2 | d2 c2 | B2 ^d2 | e4 | %116
 a3 a | (3agf (3e^dc | B2 c^d | e2- (3efg | a3 a | (3agf (3e^de |!p! e4 | e2 (3:2:2f2 e | e4 | %125
 e2!mf! (3^g^fe |!mf! e4 | (3edc (3edF |!p! A2 [GB]2 | c2 (3[DBd][^D^B^d][Ece] | e4 | e2 (3f z e | %132
 e4 | e2!mf! (3^gfe | e4 | (3e[=f=f'][ee'] (3[=g=g'][ff']a |!p! [=c=c']2 =g2 | %137
 [=c=c']2[K:bass] =C,C, ||[K:C][K:treble] [ff']3 [ff'] | (3[ff'][ee'][dd'] (3[cc'][Bb][Aa] | f3 f | %141
 (3fed (3cBA |!p! G2 Bd |!f! (3.[ff'].[ee'].[dd']!ff!(3.[cc'].[Bb] .[Aa] | %144
 (3.[Gg].[Ff].[Ee]!ff!(3.[Dd]!f!.[Cc].[B,B] | (3.A.G.F(3.E.D .C |[K:bass] (3.B,.A,.G,(3.F,.E,.D, | %147
 (3.C,.B,,.A,,[K:treble] .[^G,DE].[G,DE] | .E.E!ff! .[ee'].[ee'] |!p! [cc']4 | [Bb]4 | %151
 b/4c'/4d'3/2- (3d'c'b | [Bb][cc'] z2 | [cc']3 [dd'] | [^d^d'][ee'].[ee'].[ee'] | %155
 d'/4e'/4f'3/2- (3f'e'd' | [dd'][ee'] [ee']2 | [ee']3 [^f^f'] | [ee']2 [^d^d'] z | [=d=d']3 [ee'] | %160
 [dd'][^c^c'] [=c=c'] z | [cc']4 | [Bb]2 [cc']2 | b/4c'/4d'3/2- (3d'c'b | %164
 (3[Aa][Aa][Bb] (3[cc'][cc'][dd'] | [ee']3 [^f^f'] | [ee']2 [^d^d'] z | %167
 (3[=d=d'][Bb][^c^c'] (3[dd'][ee'][dd'] | [dd'][^c^c'] [=c=c'] z | [cc']4 | [Bb]2 [cc']2 | %171
 b/4c'/4d'3/2- (3d'c'b | [A^ca]2 z2 | [A^ca]2- (3[Aca][Bb][c^c'] | [^c=f^c'][dd'] [dd']2 | %175
 [dfd']2- (3[dfd'][ee'][ff'] | [fc'f'][ee'] [ec'e']2 | (3[A^ca][Aa][Aa] (3[Aa][Bb][c^c'] | %178
 (3[^cf^c'][dd'][dd'] [dd']2 | (3!arpeggio![df^gd'][dd'][dd'] (3[dd'][ee'][ff'] | %180
 (3[f^c'f'][ee'][ee'][K:bass]!pp! .A,,.A,, | %181
[K:treble]!p! (3[e^ge'][ff'][ff'][K:bass]!pp! .A,,.A,, |[K:treble]!pp! .=c/.d/.e/.d/ .c/.d/.c/.B/ | %183
 A/B/c/d/ e/f/^g/a/ | ^g/e/^f/g/ a/b/a/=g/ | ^f/f/g/a/ b/B/^c/^d/ |!p! e2 .e.^f | .g2 .g2 | %188
 ^f2 .f.^g | .a.=f .e.d- |!pp! [Ad] c2 e- | e A2 e- | e d2 e | ^fe ^d/d/e/f/ | ^f e2 b | b e2 b | %196
 b a2 b | .c'.a .^g/.g/.a/.b/ | a2 z/ .^c/.d/.e/ | d2 z/ .^f/.=g/.a/ | gG .c/.B/.c/.d/ | %201
 .e/.f/.g/.f/ .e/.f/.e/.d/ | .c/.d/.e/.f/ .g/.a/.b/.c'/ |!p! f2 .f.^g | a2 a2 |!pp! x =g2 g- | %206
 g =f2 a- | a/g/e/d/ ^c/e/a/g/- | g f2 z |!p! ^g2 .g.a | [Bb]2 .[Bb].[cc'] | d'2 a/b/c'/^c'/ | %212
 [fd'f'][ee']/[^d^d']/ [ee']/.[ee']/.[^fe']/.[^ge']/ | a/b/c'/b/ a/c'/b/a/ | %214
 e/^f/^g/a/ b/c'/d'/e'/ | d'/b/c'/d'/ e'/d'/c'/b/ | c'/b/c'/d'/ e'/e/^f/^g/ | a/b/c'/b/ a/c'/b/a/ | %218
 e/^f/^g/a/ b/c'/d'/e'/ | d'/b/c'/d'/ e'/d'/c'/b/ | a2 z2 | e2 .^f.^g | a z z2 | %223
 z2[Q:1/4=60]"^ten." e2 ||[K:A][Q:1/4=72] e2 c2 | A2 c2 | c2 B2 | B2 A2 | G2 A2 | B2 c2 | d2 e2 | %231
 d2 (3cxa | a2 =g2- | g4- | g2 f2 | f2 e2 | d2 c2 | d2 e2 | c2 c2 | d2 e2 | c2 c2 | d2 e2 | %242
[Q:1/4=60]"^ten." [A,A]2[Q:1/4=72] [A,A][A,A] | [A,A]2 [A,A]2 | [A,A]2 .[A,A].[A,A] | %245
 .[A,A]2 .[A,A]2 |[Q:1/4=60]"^ten." [Bdb]2[Q:1/4=72] .[A=ca].[Bdb] ||[K:C] [cec']2 z2 | %248
 [B,D^G]2 .[B,D^F].[B,DG] | [A,CA] z z2 |[Q:1/4=60]"^ten."!ff! [Bdb]2[Q:1/4=72] .[Aca].[Bdb] | %251
 [cec']2 z2 | [B,D^G]2 .[B,D^F].[B,DG] |[Q:1/4=60]"^ten." [^gb]2[Q:1/4=72] .[^fa].[gbe'] | %254
[Q:1/4=60]"^ten."!pp! [ac'e']2[Q:1/4=72] .[ac'e'].[ac'e'] | .[^gbe']2 .[gbe']2 | %256
 .[^GBe]2 .[GBe].[GBe] | .[Ace]2 .[Ace]2 | [A,CE]2 .[A,CE].[A,C^F] | .[G,CE=G]2 .[G,CEG]2 | %260
 .[G,B,D]2 .[G,A,E].[G,B,D] | [G,CE]2 z2 | [ge']2 .[ge'].[ae'] | .[b^d']2 .[b=d']2 | %264
 [Bd^f]2 .[Bdf].[Bd^g] | .[A^ca]2 .[A=ca]2 | [A,CE]2 .[A,CE].[A,CE] | .[B,DE]2 .[A,CE]2 | %268
[K:bass]!p! .[E,B,D]2 .[E,B,D].[E,B,D] | .[E,A,C]2 z2 | %270
[K:treble][Q:1/4=60]"^ten."!pp! [Bde]2[Q:1/4=72] .[Bde^f].[Bde^g] | [Acea]2 z2 | %272
[K:bass] .[E,B,D]2 .[E,B,D].[E,B,D] | [A,C]2!p![Q:1/4=60]"^ritard" z2 |[K:treble] E2 e2 | %275
!p! ^f!>(!^g!pp! a2!>)! | x4 | x4 |] %278
V:2
!ped! [E,A,C]4- | [E,A,C]4!ped-up! |!p! [A,,,A,,]2 .[A,,,A,,].[A,,,A,,] | %3
!ped! [^G,,,^G,,]2 [G,,,G,,]2!ped-up! | [E,,,E,,]2 .[E,,,E,,].[E,,,E,,] | %5
!ped! [A,,,A,,]2 [A,,,A,,]2!ped-up! | [A,,,A,,]2 .[A,,,A,,].[A,,,A,,] | [G,,,G,,]2 [G,,,G,,]2 | %8
 [G,,,G,,]2 .[G,,,G,,].[G,,,G,,] |!ped! C,,2 z2!ped-up! | [C,,C,]2 .[C,,C,].[C,,C,] | %11
!ped! [B,,,B,,]2 [B,,,B,,]2!ped-up! | [B,,,B,,]2 .[B,,,B,,].[B,,,B,,] | %13
!ped! [A,,,A,,]2 [A,,,A,,]2!ped-up! | [A,,,A,,]2 .[A,,,A,,].[A,,,A,,] | %15
!ped! [^G,,,^G,,]2 [A,,,A,,]2!ped-up! | [E,,,E,,]2 .[E,,,E,,].[E,,,E,,] | %17
!ped! [A,,,A,,]2 z2!ped-up! | [C,,C,]2 .[C,,C,].[C,,C,] |!ped! [B,,,B,,]2 [B,,,B,,]2!ped-up! | %20
 [B,,,B,,]2 .[B,,,B,,].[B,,,B,,] | [A,,,A,,]2 [A,,,A,,]2 | [A,,,A,,]2 .[A,,,A,,].[A,,,A,,] | %23
 [^G,,,^G,,]2 [A,,,A,,]2 | [E,,,E,,]2 .[E,,,E,,].[E,,,E,,] |!ped! [A,,,A,,]2 z2!ped-up! | %26
 z2 .[A,,,A,,].[A,,,A,,] |!ped! [^G,,,^G,,] z!ped-up!!ped! [G,,^G,] z!ped-up! | %28
 z2 [E,,,E,,][E,,,E,,] | [A,,,A,,] z [A,,A,] z | z2 [A,,,A,,][A,,,A,,] | [G,,,G,,] z [G,,G,] z | %32
 z2 [G,,G,][G,,G,] | [C,,C,] z [C,C] z | z2 [C,,C,][C,,C,] | [B,,,B,,] z [B,,B,] z | %36
 z2 [E,,E,][E,,E,] | [A,,,A,,] z [A,,A,] z | z2 [A,,,A,,][A,,,A,,] | [^G,,,^G,,] z [A,,,A,,] z | %40
 z2 [E,,,E,,][E,,,E,,] |!p! [A,,,A,,] z [A,,A,] z | z2 [C,,C,][C,,C,] | [B,,,B,,] z [B,,B,] z | %44
 z2 [E,,E,][E,,E,] | [A,,,A,,] z [A,,A,] z | z2 [A,,A,][A,,A,] | [^G,,^G,] z [A,,A,] z | %48
 z2 [E,,E,][E,,E,] |!ped! [A,,,A,,] z!ped-up!!ped! [A,,A,] z!ped-up! | %50
!ped! [A,,,A,,] A,C[A,,E,]!ped-up! | [^G,,,^G,,] ^G,B,[G,,E,] | E,, ^G,B,E, | A,, A,CE, | %54
!ped! A,, A,!ped-up!C[A,,C,] |!ped! G,, G,!ped-up!CC, | G,, B,DG, | %57
!ped! C, G,!ped-up!!p!!ped!CC,!ped-up! |!ped! [C,,C,] C!ped-up!!ped!EE,!ped-up! | %59
!ped! [B,,,B,,] ^F,!ped-up!!ped!B,B,,!ped-up! | [B,,,B,,] B,D[B,,D,] | A,, E,A,A,, | %62
!mp!!ped! [A,,,A,,] A,!ped-up!!ped!EE,!ped-up! |!ped! ^G,, B,!ped-up!!ped!E[A,,E,]!ped-up! | %64
!f! E,,!mp! B,!ped!EE,!ped-up! | A,, CEA, |!mf!!ped! [C,,C,] C!ped-up!EE, | %67
!ped! [B,,,B,,] ^F,!ped-up!B,B,, |!ped! [B,,,B,,] B,!ped-up!D[B,,D,] | %69
!ped! [A,,,A,,] E,!ped-up!A,A,, |!ped! [A,,,A,,] A,!ped-up!EE, | %71
!ped! [^G,,,^G,,] B,!ped-up!E[A,,E,] | E,, B,!ped!EE,!ped-up! |!ped! [A,,,A,,] C!ped-up!EA, | %74
!mf!!ped! (3.[A,,,A,,].A,.C (3.A,.A,,.A,!ped-up! | %75
!ped! (3.[^G,,,^G,,].^G,.B, (3.G,.G,,.G,!ped-up! |!ped! (3.[E,,,E,,].^G,.B, (3.E,.E,,.E,!ped-up! | %77
!ped! (3.[A,,,A,,].A,.C (3.A,.A,,.A,!ped-up! |!ped! (3.[A,,,A,,].A,.C (3.A,.A,,.A,!ped-up! | %79
!ped! (3.[=G,,,=G,,].G,.C (3.G,.G,,.G,!ped-up! |!ped! (3.[G,,,G,,].B,.D (3.G,.G,,.G,!ped-up! | %81
!ped! (3.[C,,C,].G,.C (3.C,.C,,.C,!ped-up! |!ped! (3.[C,,C,].G,.C (3.C,.C,,.C,!ped-up! | %83
!ped! (3.[B,,,B,,].B,,.B, (3.B,,.B,,,.B,,!ped-up! | %84
!ped! (3.[B,,,B,,].B,,.B, (3.B,,.B,,,.B,,!ped-up! | %85
!ped! (3.[A,,,A,,].A,,.A, (3.A,,.A,,,.A,,!ped-up! |!ped! (3.A,,.A,.C (3.A,.A,,.A,!ped-up! | %87
!ped! (3.^G,,.^G,.B,!ped-up!!ped! (3.A,.A,,.A,!ped-up! |!ped! (3.E,,.^G,.B, (3.E,.E,,.E,!ped-up! | %89
!ped! (3.[A,,,A,,].A,,.A, (3.A,,.[A,,,A,,].[A,,,A,,]!ped-up! | %90
!mf!"^dim."!ped! (3.[C,,C,].G,.C (3.C,.C,,.C,!ped-up! | %91
!ped! (3.[B,,,B,,].B,,.B, (3.B,,.B,,,.B,,!ped-up! | %92
!ped! (3.[B,,,B,,].B,,.B, (3.B,,.B,,,.B,,!ped-up! | %93
!ped! (3.[A,,,A,,].A,,.A, (3.A,,.A,,,.A,,!ped-up! |!ped! (3.A,,.A,.C (3.A,.A,,.A,!ped-up! | %95
!ped! (3.^G,,.^G,.B,!ped-up!!ped! (3.A,.A,,.A,!ped-up! |!ped! (3.E,,.^G,.B, (3.E,.E,,.E,!ped-up! | %97
 [A,,,A,,]2 z2 | [E,B,D]2 [E,B,D][E,B,D] | [A,CE]2 z2 | E,,2!ped! ^F,,^G,,!ped-up! || %101
[K:A]!ped! A,2 x2 | x4!ped-up! |!ped! [D,F,]4 | [D,F,]2!ped-up! [C,E,]2 | [B,,D,]2 [C,E,]2 | %106
 [D,F,]2 [E,=G,]2 | [F,A,]2!ped! [^G,B,]2 | [G,B,]2!ped-up! [E,A,][E,=G,] | %109
 [E,=G,]2!ped! [C,E,G,]2- | [C,E,G,]4- | [C,E,G,]2!ped-up!!ped! [D,F,]2- | %112
 [D,F,]2!ped-up! [C,E,]2 | [F,,F,][G,,G,] [A,,A,]2 | G,2 [F,B,]A, |!ped! G,2 z2!ped-up! | %116
 (3FB,A, (3FB,A, | (3EB,G, (3EB,G, | (3^DA,F, (3B,A,F, | (3B,G,B, (3E^DC | (3B,A,B, (3FB,A, | %121
 (3EB,G, (3EB,G, |"^cresc."!ped! [=G,_B,]4!ped-up! |!ped! [^G,=B,]4!ped-up! | %124
!ped! [=G,_B,]4!ped-up! |!ped! [^G,=B,]4!ped-up! |"^dim."!ped! [=G,_B,]2 G,2!ped-up! | F,4 | %128
 [E,,E,]2 ^G,2 |"^cresc." [E,A,]2 (3B,^B,C |!ped! [=G,_B,]4!ped-up! |!ped! [G,=B,]4!ped-up! | %132
!ped! [=G,_B,]4!ped-up! |!ped! [G,=B,]4!ped-up! | [=G,_B,]4 | A,2 A,2 | (3E,=G,=C (3=F,G,C | %137
 (3E,=G,=C (3E,G,C ||[K:C] (3D,G,B, (3D,G,B, | (3E,G,C (3E,G,C | (3D,G,B, (3D,F,G, | %141
 (3C,E,G,!p! (3C,E,G, |"^cresc." (3D,G,B, (3D,G,B, | (3.F.E.D(3.C!f!.B, .A, | %144
 (3.G,.F,.E,(3.D,.C, .B,, | (3.A,.G,.F, (3.E,.D, .C, | %146
 (3.[B,,,B,,].[A,,,A,,].[G,,,G,,](3.[F,,,F,,].[E,,,E,,] .[D,,,D,,] | %147
 (3.C,,.B,,,.A,,,!ff! .[^G,,,^G,,].[G,,,G,,] |!ff! .[E,,E,].[E,,E,] .E.E | %149
!pp! z/ .C/.A,/.C/ .E/.C/.A,/.C/ | z/ .B,/.^G,/.B,/ .E/.B,/.G,/.B,/ | %151
 z/ .B,/.^G,/.B,/ .E/.B,/.G,/.B,/ | z/ .C/.A,/.C/ .E/.C/.A,/.C/ | z/ .C/.=G,/.C/ .G,/.C/.A,/.C/ | %154
 z/ .E/.C/.E/ .G/.E/.C/.E/ | z/ .D/.B,/.D/ .G/.D/.B,/.D/ | z/ .E/.C/.E/ .G/.E/.C/.E/ | %157
 z/ .E,/.C,/.E,/ .C/.E,/.E/.^F,/ | z/ .^F/.^D/.F/[K:treble] .B/.^F/.^D/.F/ | %159
[K:bass] z/ .=D,/.A,,/.D,/ .A,/.D,/.B,/.E,/ | z/ .^C/.A,/.C/ .E/.=C/.A,/.C/ | %161
 z/ .C/.A,/.C/ .E/.C/.A,/.C/ | z/ .B,/.^G,/.B,/ .E/.C/.A,/.C/ | .^G,/.B,/.G,/.B,/ .A,/.E/.D/.E/ | %164
 z/ .C/.A,/.C/ .E/.C/.A,/.C/ | z/ .E,/.B,,/.E,/ .B,/.E,/.C/.E,/ | %166
 z/ .^F/.^D/.F/[K:treble] .B/.^F/.^D/.F/ |[K:bass] z/ .=D,/.A,,/.D,/ .A,/.D,/.B,/.E,/ | %168
 .A,/.^C/.A,/.C/ .E/.=C/.A,/.C/ | z/ .C/.A,/.C/ .E/.C/.A,/.C/ | z/ .B,/.^G,/.B,/ .E/.C/.A,/.C/ | %171
 z/ .E/.^G,/.E/ .A,/.E/.D/.E/ | z/ .E/.^C/.E/[I:staff -1] .G/[I:staff +1].E/.C/.E/ | %173
 z/ .E,/.^C,/.E,/ .G,/.E,/.A,,/.G,/ | z/ .F,/.D,/.F,/ .A,/.F,/.D,/.F,/ | %175
 z/ .F,/.D,/.F,/ .B,/.F,/.D,/.F,/ | z/ .E/.^C/.E/ .G/.E/.C/.E/ | %177
"^cresc." z/ .E,/.C,/.E,/ .G,/.E,/.C,/.E,/ | z/ .F,/.D,/.F,/ .A,/.F,/.D,/.F,/ | %179
 z/ .F,/.D,/.F,/ .B,/.F,/.D,/.F,/ | z/ .E/.^C/.E/ .G/.E/.C/.E/ | z/ .F/.D/.F/ .B/.F/.D/.F/ | %182
 [A,,A,]2[K:treble]!p! .A.B | .c2 .c2 | B2 .B.^c | .d.=c .B.A |!pp! .=G/.A/.B/.A/ .G/.A/.G/.^F/ | %187
 .E/.^F/.G/.A/ .B/.^c/.^d/.e/ | .e/.A/.B/.^c/ .=d/.B/.e/.d/ | .=c/.B/.c/.d/ z2 | %190
[K:bass]!p! A,,2 .A,,.B,, | A,/B,/C/[I:staff -1]D/[I:staff +1] x2 | B,,2 .B,,.^C, | %193
 .D,.=C, .B,,.A, | E2!pp! E^F | E,/^F,/G,/A,/ B,/^C/^D/E/ | ^F2 .F.^G | .A.=F .E.D | %198
 ^C/C/D/E/ A,/A,/B,/C/ | .D.=C ._B,.A, | =B,/B,/C/D/ G,/G,/A,/B,/ |!p! C2 CD | %202
!ped! E2 E2-!ped-up! |!pp! E D2 D- | D C2 C | _B,/C/D/C/ B,/D/C/B,/ | A,/_B,/C/D/ E/F/G/A/ | %207
 =B,2 .B,.^C | D2 D2 | %209
 [D,F,^G,B,]/[D,F,G,B,]/[D,F,G,B,]/[D,F,G,B,]/ [D,F,G,B,]/[D,F,G,B,]/[D,F,G,B,]/[D,F,G,B,]/ | %210
 B,/^G,/A,/B,/ G,/A,/B,/C/ | %211
"^cresc." [D,F,D]/[D,F,^G,B,]/[D,F,G,B,]/[D,F,G,B,]/ [D,F,G,B,]/[D,F,G,B,]/[D,F,G,B,]/[D,F,G,B,]/ | %212
 [D,F,^G,B,]/[D,F,G,B,]/[D,E,B,]/[D,E,B,]/ [D,E,B,]/[D,E,]/[C,E,]/[B,,E,]/ | %213
!ff! [A,,C,E,]2 .[A,,C,E,].[A,,C,E,] | .[^G,,B,,E,]2 .[G,,B,,E,]2 | %215
 [E,,^G,,B,,E,]2 .[E,,G,,B,,E,].[E,,G,,B,,E,] | .[A,,C,E,]2 .[A,,C,E,]2 | %217
 [A,,C,E,]2 .[A,,C,E,].[A,,C,E,] | [^G,,B,,D,E,]2 [A,,C,E,]2 | %219
 [E,,^G,,B,,E,]2 .[E,,A,,E,].[E,,B,,E,] | [A,,C,E,]2 z2 |!p! [E,B,DE]2 [E,B,DE][E,B,DE] | %222
 [A,CE] z z2 | E,,2 .^F,,.^G,, ||[K:A]!ped! A,2 x2 | x4!ped-up! | [F,A,]4 | [F,A,]2 [C,E,]2 | %228
 [B,,D,]2 [C,E,]2 | [D,F,]2 [E,=G,]2 | [F,A,]2 [^G,B,]2 | [G,B,]2 [E,A,][E,=G,] | %232
 [E,=G,]2 [C,E,G,]2- | [C,E,G,]4- |!mp! [C,E,G,]2 [D,F,]2- | [D,F,]2 [C,E,]2 | [F,A,]2 [E,=G,]2 | %237
 [F,A,]2 [^G,B,]2 | A,3 =G, |"^dim."!mp! [F,A,]2!ped! [^G,B,]2!ped-up! | A,3 =G, | %241
 [F,A,]2!ped! [^G,B,]2!ped-up! | [A,,,A,,]4 |!pp! A,,2 A,,A,, | =G,,4 | A,,2 .A,,.A,, | %246
!ff! [=G,,,=G,,] z [G,,=G,] z ||[K:C] [C,,C,]2 z2 |!p! [E,,E,]2 .[E,,E,].[E,,E,] | [A,,,A,,] z z2 | %250
 [G,,,G,,] z [G,,G,] z | [C,,C,]2 z2 |!p! [E,,E,]2 .[E,,E,].[E,,E,] | z4 | z2 .[A,,,A,,]2 | %255
 z2 .[B,,B,]2 | z2 .[E,,E,]2 | z2 .[A,,A,]2 | z2 A,,2 | z2 .G,,2 | %260
 .[G,,,G,,]2 .[G,,,G,,].[G,,,G,,] | [G,,,G,,]2 z2 | z2 .[C,C]2 | z2 .[B,,B,]2 | z2 .[E,E]2 | %265
 z2 .[A,,A,]2 | z2 .[A,,E,]2 | .[^G,,E,]2 .[A,,E,]2 | .[E,,,E,,]2 .[^F,,,^F,,].[^G,,,^G,,] | %269
 .[A,,,A,,]2 z2 | [E,B,DE]2 .[E,B,DE].[E,B,DE] | [A,CE]2 z2 | %272
 .[E,,,E,,]2 .[^F,,,^F,,].[^G,,,^G,,] | .[A,,,A,,]2 z2 |!pp! .[A,,,A,,]2!mp! z2 | [E,A,CE]4- | %276
 [E,A,CE]4- | [E,A,CE] z z2 |] %278
V:3
 x4 | x4 |[K:bass] x4 | x4 | x4 | x4 | x4 | x4 | x4 | x4 | x4 | x4 | x4 | x4 | x4 | x4 | x4 | x4 | %18
 x4 | x4 | x4 | x4 | x4 | x4 | x4 | x4 |[K:treble] C4 | B,4 | B,/4C/4D3/2- DC/B,/ | B,C C2 | %30
 C3 C/D/ | ^DE E2 | =D/4E/4F3/2- FE/D/ | DE E2 | E4 | ^D4 | DB,/^C/ DE/D/ | D^C =C2 | C4 | B,2 C2 | %40
 B,/4C/4D3/2 DC/B,/ | A,A,/B,/ CC/D/ | E4 | ^D4 | DB,/^C/ DE/D/ | D^C =C2 | C4 | B,2 C2 | %48
 B,/4C/4D3/2- DC/B,/ | A,2 z2 | c4 | .B4 | B/4c/4d3/2- dc/B/ | Bc c2 | c3 c/d/ | ^de ee | %56
 =d/4e/4f3/2- fe/d/ | de e2 | e4 | ^d4 | dB/^c/ de/d/ | d^c =c2 | c4 | B2 c2 | B/4c/4d3/2- dc/B/ | %65
 AA/B/ cc/d/ | e4 | ^d4 | =dB/^c/ de/d/ | d^c =c2 | c4 | B2 c2 | B/4c/4d3/2- dc/B/ | A2 c2 | %74
 e2 ee | e2 e2 | e2 ee | e2 e2 | e2 e^f | g2 g2 | g2 gg | g2 z2 | g2 ga | b2 b2 | ^f2 f^g | a2 a2 | %86
 e2 ee | e2 e2 | e2 ^f^g | x4 | [e=g]2 ga | b2 b2 | ^f2 f^g | a2 a2 | e2 ee | e2 e2 | e2 ^f^g | %97
 a2 z2 | B/4c/4"^ten."d3/2- dc/B/ | A2 z2 | B,/4^C/4D3/2- DC/B,/ ||[K:A] (3EcA (3cAE | %102
 (3AEC (3cAE | (3cFD (3BFD | (3BFD (3ACA | (3GB,D (3ACE | (3BDA (3cE[=Gc] | (3DFA (3E^Ge | %108
 (3d[EG]B (3cAa | (3acA (3ec=G | (3[Ac]=GE (3ecG | (3ec=G (3Fde | (3fdF (3cEA | (3BEB (3AEA | %114
 (3GGE (3FAB | (3EBG (3EBG | x4 | x4 | A3 A | (3AGF z2 | B2 c^d | e2 z2 | (3[E=G_B]BG (3EGB | %123
 (3E^G=B (3!arpeggio!FB[EG] | (3!arpeggio![E=G_B]BG (3EGB | (3E^G=B (3G^FE | (3E_B=G (3EGB | %127
 F2 (3z FD | (3ACE (3DDG | (3CEA x2 | (3!arpeggio![E=G_B]BG (3EGB | (3E^G=B (3!arpeggio!F[GB]E | %132
 (3!arpeggio![E=G_B]BG (3EGB | (3E^G=B (3GFE | (3E_B=G (3EGB | A z x2 | x2 [ee'][dd'] | %137
 x4/3[K:bass] x8/3 ||[K:C][K:treble] x4 | x4 | [Gg]2 [Aa][Bb] | [cc']2 (3z de | f3 f | x4 | x4 | %145
 x4 |[K:bass] x4 | x2[K:treble] x2 | x4 | x4 | x4 | d2- (3dcB | x4 | x4 | x4 | f2- (3fed | x4 | %157
 x4 | x4 | x4 | x4 | x4 | x4 | d2- (3dcB | x4 | x4 | x4 | x4 | x4 | x4 | x4 | d2- (3dcB | x4 | x4 | %174
 x4 | x4 | x4 | x4 | x4 | x4 | x2[K:bass] x2 |[K:treble] x2[K:bass] x2 |[K:treble] A2 z2 | x4 | %184
 x4 | x4 | x4 | x4 | x4 | z2 z/ .E/.^F/.^G/ | C/D/E/D/ C/D/[I:staff +1]C/B,/ | %191
[I:staff -1] z2 E/^F/^G/A/ | ^G/E/^F/G/ A/B/A/=G/ | ^F/F/G/A/ B/[I:staff +1]B,/^C/^D/ | x4 | %195
[I:staff -1] G2 G2 | x4 | x4 | x4 | x4 | x4 | x4 | x4 | B/c/d/c/ B/d/c/B/ | x4 | %205
 =G/A/_B/A/ G/B/A/G/ | =F/G/A/_B/ cf | x4 | d2 de | f/d/e/f/ d/B/c/d/ | x4 | %211
 d/e/f/^g/ .[dd'].[ee'] | x4 | [ee']2 [ee'][ee'] | e'2 [ee']2 | [ee']2 .e.e | [ee']2 e2 | %217
 [ee']2 .[ee'].[ee'] | e'2 [ee']2 | [ee']2 .^f.^g | a2 z2 | .d/.B/.c/.d/ .e/.d/.c/.B/ | A z z2 | %223
 .D/.B,/.^C/.D/ .E/.D/.C/.B,/ ||[K:A] (3EcA (3cAE | (3AEC (3cAE | (3cFD (3BFD | (3BFD (3ACA | %228
 (3GB,D (3ACE | (3BDA (3cE[=Gc] | (3DFA (3E^Ge | (3d[EG]B (3cAa | (3acA (3ec!p!!<(!=G | %233
 (3[Ac]=GE (3ec!<)!G | (3ec=G (3Fde | (3fdF (3ecA | (3dAF (3c=GE | (3dAF (3eBE | (3cAE (3cAE | %239
 (3dAF (3eBE | (3cAE (3cAE | (3dAF (3eBE | C4 | D4 | D4 | D4 | x4 ||[K:C] x4 | x4 | x4 | x4 | x4 | %252
 x4 | x4 | x4 | x4 | x4 | x4 | x4 | x4 | x4 | x4 | x4 | x4 | x4 | x4 | x4 | x4 |[K:bass] x4 | x4 | %270
[K:treble] x4 | x4 |[K:bass] x4 | E,2 .^F,.^G, |[K:treble] [A,C]2 ^F^G | [Ace]4- | [Ace]4- | %277
 [Ace] z z2 |] %278
V:4
 x4 | x4 | x4 | x4 | x4 | x4 | x4 | x4 | x4 | x4 | x4 | x4 | x4 | x4 | x4 | x4 | x4 | x4 | x4 | %19
 x4 | x4 | x4 | x4 | x4 | x4 | x4 | x4 | x4 | x4 | x4 | x4 | x4 | x4 | x4 | x4 | x4 | x4 | x4 | %38
 x4 | x4 | x4 | x4 | x4 | x4 | x4 | x4 | x4 | x4 | x4 | x4 | x4 | x4 | x4 | x4 | x4 | x4 | x4 | %57
 x4 | x4 | x4 | x4 | x4 | x4 | x4 | x4 | x4 | x4 | x4 | x4 | x4 | x4 | x4 | x4 | x4 | x4 | x4 | %76
 x4 | x4 | x4 | x4 | x4 | x4 | x4 | x4 | x4 | x4 | x4 | x4 | x4 | x4 | x4 | x4 | x4 | x4 | x4 | %95
 x4 | x4 | x4 | x4 | x4 | x4 ||[K:A] A,,2 [A,,,A,,][A,,,A,,] | A,,2 [A,,,A,,][A,,,A,,] | %103
 A,,2 [A,,,A,,][A,,,A,,] | [A,,,A,,]2 A,,A,, | A,,2 A,,A,, | A,,2 A,,A,, | A,,2 A,,A,, | %108
 A,,2 A,,A,, | A,,2 A,,A,, | A,,2 [A,,,A,,][A,,,A,,] | [A,,,A,,]2 A,,A,, | A,,2 A,,A,, | x4 | %114
 B,,2 B,,B,, | E,2 [E,,E,][E,,E,] | E,4 | E,4 | E,4 | x4 | x4 | x4 | ^C,2 [C,,C,][C,,C,] | %123
 D,2 [D,,D,][D,,D,] | ^C,2 [C,,C,][C,,C,] | D,2 [D,,D,][D,,D,] | C,2 C,C, | D,2 [D,,D,][D,,D,] | %128
 x2 E,E, | A,,2 (3A,,xA,, | ^C,2 [C,,C,][C,,C,] | D,2 [D,,D,][D,,D,] | ^C,2 [C,,C,][C,,C,] | %133
 D,2 [D,,D,][D,,D,] | C,2 [=C,,=C,][C,,C,] | =F,2 F,F, | =G,,2 G,, z | =C,2 z2 ||[K:C] C,4 | C,4 | %140
 C,4 | C,2 C,2 | C,4 | x4 | x4 | (3.A,,.G,,.F,,(3.E,,.D,, .C,, | x4 | x4 | x4 | [E,,E,]2 E,E, | %150
 E,2 E,2 | [E,,E,]2 E,E, | E,2 E,2 | [E,,E,]2 E,^F, | =G,2 G,2 | G,2 G,G, | G,2 z2 | G,,2 G,,A,, | %158
 [B,,B,]2[K:treble] B,2 |[K:bass] ^F,,2 F,,^G,, | A,,2 A,,2 | [E,,E,]2 E,E, | E,2 E,2 | %163
 E,2 ^F,^G, | [A,,A,]2 z2 | G,,2 G,,A,, | [B,,B,]2[K:treble] B,2 |[K:bass] ^F,,2 F,,^G,, | %168
 A,,2 A,,2 | [E,,E,]2 E,E, | [E,,E,]2 E,2 | [E,,E,]2 ^F,^G, | [A,,A,]2 z2 | A,,2 A,,A,, | %174
 A,,2 A,,A,, | A,,2 A,,A,, | [A,,A,]2 A,A, | A,,A,, A,, z | A,,A,, A,, z | A,,2 A,,A,, | %180
 [A,,A,]2 z2 | [A,,A,]2 z2 | x2[K:treble] x2 | x4 | x4 | x4 | x4 | x4 | x4 | x4 |[K:bass] x4 | %191
 C,2 C,2 | x4 | x4 | x4 | x4 | E/A,/B,/^C/ =D/B,/E/D/ | =C/B,/C/D/ E/E,/^F,/^G,/ | %198
 .A,.=G, .^F,.E, | ^F,/F,/G,/A,/ D,/D,/E,/=F,/ | G,F, E,D,- | D, C,2 G,- | G, C,3 | x4 | x4 | %205
 D,2 .D,.E, | F,2 F,2 | F,/E,/G,/F,/ E,/G,/F,/E,/ | D,/E,/F,/G,/ A,/B,/^C/D/ | x4 | %210
 [D,F,]/[D,F,]/[D,F,]/[D,F,]/ [D,F,]/[D,F,]/[D,F,]/[D,F,]/ | x4 | x4 | x4 | x4 | x4 | x4 | x4 | %218
 x4 | x4 | x4 | x4 | x4 | x4 ||[K:A] A,,2 [A,,,A,,][A,,,A,,] | [A,,,A,,]2 [A,,,A,,][A,,,A,,] | %226
 A,,2 [A,,,A,,][A,,,A,,] | [A,,,A,,]2 A,,A,, | A,,2 A,,A,, | A,,2 A,,A,, | A,,2 A,,A,, | %231
 A,,2 A,,A,, | A,,2 .A,,.A,, | A,,2 [A,,,A,,][A,,,A,,] | [A,,,A,,]2 .A,,.A,, | A,,2 A,,A,, | %236
 A,,2 A,,A,, | A,,2 A,,A,, | A,,2 A,,A,, | A,,2 A,,A,, | A,,2 A,,A,, | A,,2 A,,A,, | x4 | %243
 [=F,,,=F,,]4 | [E,,,E,,]4 | [D,,,D,,=F,,]4 | x4 ||[K:C] x4 | x4 | x4 | x4 | x4 | x4 | x4 | x4 | %255
 x4 | x4 | x4 | x4 | x4 | x4 | x4 | x4 | x4 | x4 | x4 | x4 | x4 | x4 | x4 | x4 | x4 | x4 | x4 | %274
 x4 | x4 | x4 | x4 |] %278
V:5
 x4 | x4 | x4 | x4 | x4 | x4 | x4 | x4 | x4 | x4 | x4 | x4 | x4 | x4 | x4 | x4 | x4 | x4 | x4 | %19
 x4 | x4 | x4 | x4 | x4 | x4 | x4 | x4 | x4 | x4 | x4 | x4 | x4 | x4 | x4 | x4 | x4 | x4 | x4 | %38
 x4 | x4 | x4 | x4 | x4 | x4 | x4 | x4 | x4 | x4 | x4 | x4 | x4 | x4 | x4 | x4 | x4 | x4 | x4 | %57
 x4 | x4 | x4 | x4 | x4 | x4 | x4 | x4 | x4 | x4 | x4 | x4 | x4 | x4 | x4 | x4 | x4 | x4 | x4 | %76
 x4 | x4 | x4 | x4 | x4 | x4 | x4 | x4 | x4 | x4 | x4 | x4 | x4 | x4 | x4 | x4 | x4 | x4 | x4 | %95
 x4 | x4 | x4 | x4 | x4 | x4 ||[K:A] [C,E,]4- | [C,E,]4 | x4 | x4 | x4 | x4 | x4 | x4 | x4 | x4 | %111
 x4 | x4 | x4 | x4 | x4 | x4 | x4 | x4 | x4 | x4 | x4 | x4 | x4 | x4 | x4 | x4 | x4 | x4 | x4 | %130
 x4 | x4 | x4 | x4 | x4 | x4 | x4 | x4 ||[K:C] x4 | x4 | x4 | x4 | x4 | x4 | x4 | x4 | x4 | x4 | %148
 x4 | x4 | x4 | x4 | x4 | x4 | x4 | x4 | x4 | x4 | x2[K:treble] x2 |[K:bass] x4 | x4 | x4 | x4 | %163
 x4 | x4 | x4 | x2[K:treble] x2 |[K:bass] x4 | x4 | x4 | x4 | x4 | x4 | x4 | x4 | x4 | x4 | x4 | %178
 x4 | x4 | x4 | x4 | x2[K:treble] x2 | x4 | x4 | x4 | x4 | x4 | x4 | x4 |[K:bass] x4 | x4 | x4 | %193
 x4 | x4 | x4 | x4 | x4 | x4 | x4 | x4 | x4 | x4 | x4 | x4 | x4 | x4 | x4 | x4 | x4 | x4 | x4 | %212
 x4 | x4 | x4 | x4 | x4 | x4 | x4 | x4 | x4 | x4 | x4 | x4 ||[K:A] [C,E,]4 | [C,E,]4 | x4 | x4 | %228
 x4 | x4 | x4 | x4 | x4 | x4 | x4 | x4 | x4 | x4 | E,4 | x4 | E,4 | x4 | x4 | x4 | x4 | x4 | x4 || %247
[K:C] x4 | x4 | x4 | x4 | x4 | x4 | x4 | x4 | x4 | x4 | x4 | x4 | x4 | x4 | x4 | x4 | x4 | x4 | %265
 x4 | x4 | x4 | x4 | x4 | x4 | x4 | x4 | x4 | x4 | x4 | x4 | x4 |] %278
V:6
 x4 | x4 |[K:bass] x4 | x4 | x4 | x4 | x4 | x4 | x4 | x4 | x4 | x4 | x4 | x4 | x4 | x4 | x4 | x4 | %18
 x4 | x4 | x4 | x4 | x4 | x4 | x4 | x4 |[K:treble] x4 | x4 | x4 | x4 | x4 | x4 | x4 | x4 | x4 | %35
 x4 | x4 | x4 | x4 | x4 | x4 | x4 | x4 | x4 | x4 | x4 | x4 | x4 | x4 | x4 | x4 | x4 | x4 | x4 | %54
 x4 | x4 | x4 | x4 | x4 | x4 | x4 | x4 | x4 | x4 | x4 | x4 | x4 | x4 | x4 | x4 | x4 | x4 | x4 | %73
 x4 | x4 | x4 | x4 | x4 | x4 | x4 | x4 | x4 | x4 | x4 | x4 | x4 | x4 | x4 | x4 | x4 | x4 | x4 | %92
 x4 | x4 | x4 | x4 | x4 | x4 | x4 | x4 | x4 ||[K:A] x4 | x4 | x4 | x4 | x4 | x4 | x4 | x4 | x4 | %110
 x4 | x4 | x4 | x4 | x4 | x4 | x4 | x4 | x4 | x4 | x4 | x4 | x4 | x4 | x4 | x4 | x4 | x4 | x4 | %129
 x4 | x4 | x4 | x4 | x4 | x4 | x4 | x4 | x4/3[K:bass] x8/3 ||[K:C][K:treble] x4 | x4 | x4 | x4 | %142
 x4 | x4 | x4 | x4 |[K:bass] x4 | x2[K:treble] x2 | x4 | x4 | x4 | x4 | x4 | x4 | x4 | x4 | x4 | %157
 x4 | x4 | x4 | x4 | x4 | x4 | x4 | x4 | x4 | x4 | x4 | x4 | x4 | x4 | x4 | x4 | x4 | x4 | x4 | %176
 x4 | x4 | x4 | x4 | x2[K:bass] x2 |[K:treble] x2[K:bass] x2 |[K:treble] x4 | x4 | x4 | x4 | x4 | %187
 x4 | x4 | x4 | x4 | x4 | x4 | x4 | x4 | x4 | x4 | x4 | x4 | x4 | x4 | x4 | x4 | x4 | %204
 A/B/c/d/ e/^f/^g/a/- | a x x2 | x4 | x4 | x4 | x4 | x4 | x4 | x4 | x4 | x4 | x4 | x4 | x4 | x4 | %219
 x4 | x4 | x4 | x4 | x4 ||[K:A] x4 | x4 | x4 | x4 | x4 | x4 | x4 | x4 | x4 | x4 | x4 | x4 | x4 | %237
 x4 | x4 | x4 | x4 | x4 | x4 | x4 | x4 | x4 | x4 ||[K:C] x4 | x4 | x4 | x4 | x4 | x4 | x4 | x4 | %255
 x4 | x4 | x4 | x4 | x4 | x4 | x4 | x4 | x4 | x4 | x4 | x4 | x4 |[K:bass] x4 | x4 |[K:treble] x4 | %271
 x4 |[K:bass] x4 | x4 |[K:treble] x4 | x4 | x4 | x4 |] %278

